!!!COM: Music21
!!!OTL: waltz_Old-Oak--The
!!!OMV: waltz_Old-Oak--The
**kern
*clefG2
*k[f#c#]
*D:
*M3/4
=1
2dd
8bL
8aJ
=
2dd
8bL
8aJ
=
4dd
4ee
4ff#
=
2ff#
8ff#L
8ddJ
=
4.b
8dd
8cc#L
8aJ
=
2f#
12dL
12e
12f#J
=
4.g
8f#
8eL
8aJ
=
2.d
=
*-
